stationery/1f5f3-BW.svg

<svg xmlns="http://www.w3.org/2000/svg" viewBox="0 0 64 64" enable-background="new 0 0 64 64">
  <title>ballot box with ballot</title>
  <path d="M 44.226562 2 L 10.435547 2.6035156 L 10.699219 3.7167969 C 11.985219 9.1427969 11.744469 13.994375 11.355469 16.984375 L 2 17.224609 L 4.4238281 48.525391 L 11.691406 62 L 59.462891 53.451172 L 62 19.8125 L 44.966797 16.826172 C 45.422797 14.050172 45.824531 9.001375 44.394531 2.734375 L 44.226562 2 z M 42.724609 3.8730469 C 44.172609 10.856047 43.128609 17.584516 42.724609 19.353516 L 12.777344 20.710938 C 13.262344 18.298938 14.166518 11.229203 12.769531 4.4082031 L 42.724609 3.8730469 z M 20.832031 6.8203125 C 20.738406 6.8471875 20.657281 6.9001094 20.613281 6.9746094 C 20.126281 7.8086094 19.610312 8.6435156 19.070312 9.4785156 C 18.974312 9.6295156 18.771094 9.660875 18.621094 9.546875 C 18.200094 9.227875 17.775656 8.9058906 17.347656 8.5878906 C 17.196656 8.4758906 16.947922 8.4805625 16.794922 8.6015625 C 16.700922 8.6725625 16.610578 8.7444063 16.517578 8.8164062 C 16.367578 8.9354062 16.364672 9.1272812 16.513672 9.2382812 C 17.320672 9.8452812 18.115438 10.4525 18.898438 11.0625 C 19.044438 11.1755 19.248609 11.145094 19.349609 10.996094 C 20.176609 9.7770938 20.960641 8.5617031 21.681641 7.3457031 C 21.771641 7.1967031 21.681328 7.0162187 21.486328 6.9492188 C 21.367328 6.9082187 21.247859 6.8661719 21.130859 6.8261719 C 21.032359 6.7921719 20.925656 6.7934375 20.832031 6.8203125 z M 40.253906 7.9121094 C 34.848906 8.0171094 29.442156 8.1245156 24.035156 8.2285156 C 24.040156 8.6665156 24.037391 9.1040156 24.025391 9.5410156 C 29.436391 9.4350156 34.845859 9.3257031 40.255859 9.2207031 C 40.262859 8.7837031 40.262906 8.3481094 40.253906 7.9121094 z M 21.390625 14.466797 C 19.605625 14.504797 17.821109 14.540125 16.037109 14.578125 C 15.881109 16.015125 15.693859 17.451672 15.505859 18.888672 C 17.292859 18.849672 19.080188 18.809531 20.867188 18.769531 C 21.054188 17.336531 21.238625 15.901797 21.390625 14.466797 z M 39.806641 15.568359 C 34.381641 15.683359 28.952391 15.796109 23.525391 15.912109 C 23.472391 16.350109 23.418281 16.789563 23.363281 17.226562 C 28.792281 17.109562 34.220391 16.994906 39.650391 16.878906 C 39.702391 16.441906 39.756641 16.005359 39.806641 15.568359 z M 59.679688 22.042969 L 57.361328 51.798828 L 13.578125 59.400391 L 11.382812 24.410156 L 59.679688 22.042969 z "/>
</svg>

<svg xmlns="http://www.w3.org/2000/svg" viewBox="0 0 64 64" enable-background="new 0 0 64 64">
    <title>ballot box with ballot</title><path d="m33.725 32.591c-.941.058-1.708.59-2.294 1.603-.59 1.017-.908 2.432-.943 4.239-.034 1.812.224 3.18.776 4.101.552.92 1.299 1.323 2.243 1.221.936-.103 1.687-.665 2.245-1.682.559-1.015.855-2.4.888-4.162.035-1.756-.21-3.091-.732-4.014-.522-.927-1.25-1.364-2.183-1.306"/><path d="m44.966 16.827c.456-2.776.858-7.825-.572-14.092l-.168-.735-33.791.604.264 1.112c1.286 5.426 1.045 10.278.656 13.268l-9.355.241 2.423 31.301 7.268 13.474 47.771-8.549 2.538-33.639-17.034-2.985m-32.196-12.419l29.955-.535c1.448 6.983.404 13.711 0 15.48l-29.948 1.358c.485-2.412 1.39-9.482-.007-16.303m9.893 43.007l-2.482.297-3.99-16.534 2.89-.149 2.478 12.506 2.984-12.787 2.628-.135-4.508 16.802m14.491-3.118c-.86 1.315-2.089 2.074-3.704 2.271-1.635.198-2.888-.273-3.744-1.426-1.165-1.411-1.722-3.583-1.659-6.499.059-2.971.705-5.238 1.926-6.79.905-1.296 2.178-1.981 3.807-2.063 1.608-.079 2.81.469 3.617 1.637 1.076 1.359 1.582 3.452 1.53 6.287-.053 2.783-.641 4.974-1.773 6.583m11.062-12.144l-3.02.191-.22 12.404-2.183.26.228-12.525-3.185.201.052-2.727 8.373-.431-.045 2.627m8.297 11.217l-7.233.865.251-14.773 6.985-.36-.042 2.527-4.997.317-.049 3.105 4.598-.358-.04 2.487-4.602.412-.063 3.768 5.231-.563-.039 2.573"/><path d="m40.253 7.912c-5.405.105-10.811.212-16.218.316.005.438.002.876-.01 1.313 5.411-.106 10.82-.215 16.23-.32.007-.437.007-.873-.002-1.309"/><path d="m18.898 11.063c.146.113.35.083.451-.066.827-1.219 1.611-2.436 2.332-3.652.09-.149 0-.328-.195-.395-.119-.041-.238-.083-.355-.123-.197-.068-.429-.001-.517.148-.487.834-1.003 1.669-1.543 2.504-.096.151-.299.182-.449.068-.421-.319-.846-.641-1.274-.959-.151-.112-.4-.108-.553.013-.094.071-.185.144-.278.216-.15.119-.153.311-.004.422.807.607 1.602 1.214 2.385 1.824"/><path d="m39.806 15.568c-5.425.115-10.853.229-16.28.345-.053.438-.107.876-.162 1.313 5.429-.117 10.857-.232 16.287-.348.052-.437.105-.873.155-1.31"/><path d="m21.391 14.467c-1.785.038-3.57.074-5.354.112-.156 1.437-.343 2.873-.531 4.31 1.787-.039 3.574-.079 5.361-.119.187-1.433.372-2.868.524-4.303"/></svg>
